src/topics/icons/appcode.svg

<?xml version="1.0" encoding="UTF-8" standalone="no"?>
<svg width="256px" height="256px" viewBox="0 0 256 256" version="1.1" xmlns="http://www.w3.org/2000/svg" xmlns:xlink="http://www.w3.org/1999/xlink" preserveAspectRatio="xMidYMid">
    <defs>
        <linearGradient x1="0.110619469%" y1="50%" x2="100%" y2="50%" id="linearGradient-1">
            <stop stop-color="#00DAF0" offset="19%"></stop>
            <stop stop-color="#247CE6" offset="90%"></stop>
        </linearGradient>
        <linearGradient x1="233%" y1="-68066%" x2="7023%" y2="-68066%" id="linearGradient-2">
            <stop stop-color="#00DAF0" offset="19%"></stop>
            <stop stop-color="#247CE6" offset="90%"></stop>
        </linearGradient>
        <linearGradient x1="65.7288401%" y1="103.171875%" x2="16.0266458%" y2="34.03125%" id="linearGradient-3">
            <stop stop-color="#1DDF93" offset="9%"></stop>
            <stop stop-color="#00DAF0" offset="48%"></stop>
            <stop stop-color="#247CE6" offset="90%"></stop>
        </linearGradient>
    </defs>
	<g>
		<polygon fill="#247CE6" points="216.4 201.2 256 96.4 136.4 69.2 120.8 114"></polygon>
		<polygon fill="url(#linearGradient-1)" points="256 205.2 195.6 256 75.2 224.8 107.6 166.4"></polygon>
		<polygon fill="url(#linearGradient-2)" points="35.2 127.2 4.8 39.6 140.4 0 129.6 113.6"></polygon>
		<polygon fill="url(#linearGradient-3)" points="223.2 148 185.2 83.2 186 82.8 140.4 0 0 151.6 0 256 255.2 205.2"></polygon>
		<rect fill="#000000" x="48" y="48" width="160" height="160"></rect>
		<path d="M62.8,178 L122.8,178 L122.8,188 L62.8,188 L62.8,178 Z M89.2,68.8 L102.4,68.8 L130.4,134.8 L115.2,134.8 L109.2,120 L81.6,120 L75.6,134.8 L60.8,134.8 L89.2,68.8 Z M104.4,107.6 L95.6,86.4 L86.8,107.6 L104.4,107.6 Z M126.8,102.4 C126.57858,93.1043549 130.17385,84.1236062 136.748728,77.5487281 C143.323606,70.97385 152.304355,67.3785802 161.6,67.6 C174,67.6 181.6,71.6 188,78 L178.8,88.8 C173.6,84 168.4,81.2 161.6,81.2 C150.4,81.2 142.4,90.4 142.4,102 C142.4,113.6 150.4,122.8 161.6,122.8 C169.2,122.8 174,119.6 179.2,114.8 L188.4,124.4 C181.6,131.6 174,136.4 161.2,136.4 C152.077846,136.62922 143.255645,133.13399 136.76565,126.71946 C130.275655,120.304931 126.677484,111.52421 126.8,102.4 Z" fill="#FFFFFF"></path>
	</g>
</svg>

<svg height="256" preserveAspectRatio="xMidYMid" viewBox="0 0 256 256" width="256" xmlns="http://www.w3.org/2000/svg" xmlns:xlink="http://www.w3.org/1999/xlink"><linearGradient id="a"><stop offset=".19" stop-color="#00daf0"/><stop offset=".9" stop-color="#247ce6"/></linearGradient><linearGradient id="b" x1=".110619%" x2="100%" xlink:href="#a" y1="50%" y2="50%"/><linearGradient id="c" x1="233%" x2="7023%" xlink:href="#a" y1="-68066%" y2="-68066%"/><linearGradient id="d" x1="65.72884%" x2="16.026646%" y1="103.171875%" y2="34.03125%"><stop offset=".09" stop-color="#1ddf93"/><stop offset=".48" stop-color="#00daf0"/><stop offset=".9" stop-color="#247ce6"/></linearGradient><path d="m216.4 201.2 39.6-104.8-119.6-27.2-15.6 44.8z" fill="#247ce6"/><path d="m256 205.2-60.4 50.8-120.4-31.2 32.4-58.4z" fill="url(#b)"/><path d="m35.2 127.2-30.4-87.6 135.6-39.6-10.8 113.6z" fill="url(#c)"/><path d="m223.2 148-38-64.8.8-.4-45.6-82.8-140.4 151.6v104.4l255.2-50.8z" fill="url(#d)"/><path d="m48 48h160v160h-160z"/><path d="m62.8 178h60v10h-60zm26.4-109.2h13.2l28 66h-15.2l-6-14.8h-27.6l-6 14.8h-14.8zm15.2 38.8-8.8-21.2-8.8 21.2zm22.4-5.2c-.22142-9.2956451 3.37385-18.2763938 9.948728-24.8512719s15.555627-10.1701479 24.851272-9.9487281c12.4 0 20 4 26.4 10.4l-9.2 10.8c-5.2-4.8-10.4-7.6-17.2-7.6-11.2 0-19.2 9.2-19.2 20.8s8 20.8 19.2 20.8c7.6 0 12.4-3.2 17.6-8l9.2 9.6c-6.8 7.2-14.4 12-27.2 12-9.122154.22922-17.944355-3.26601-24.43435-9.68054-6.489995-6.414529-10.088166-15.19525-9.96565-24.31946z" fill="#fff"/></svg>
